projgeom/figs/quad_set2.svg

<?xml version="1.0" encoding="iso-8859-1" standalone="no"?> 
<?xml-stylesheet href="TE_export636162228779265330.css" type="text/css"?> 
<svg xmlns="http://www.w3.org/2000/svg" xmlns:xlink="http://www.w3.org/1999/xlink" width="596pt" height="367pt" viewBox="-61.17343 -93.89413 298.18483 183.52031 "> 
<g transform="translate(0, 89.62617 ) scale(1,-1) translate(0,93.89413 )"> 
                  <g> 
 <g stroke="rgb(0.0%,0.0%,0.0%)"> 
 <g fill="rgb(0.0%,0.0%,0.0%)"> 
 <g stroke-width="0.4pt"> 
 <g> 
 <g stroke-linecap="round"> 
 <g stroke-linejoin="round"> 
 <clipPath id="pgfcp1"> <path d=" M  -61.17343 -93.89413 M  -61.17343 -93.89413 L  -61.17343 89.62617 L  237.0114 89.62617 L  237.0114 -93.89413 Z M  237.0114 89.62617  "/> 
</clipPath> 
 <g clip-path="url(#pgfcp1)"> 
 <g> 
 <g stroke="rgb(60.00061%,19.9997%,0.0%)"> 
 <g fill="rgb(60.00061%,19.9997%,0.0%)"> 
 <g fill="rgb(60.00061%,19.9997%,0.0%)"> 
 <g fill-opacity="0.1"> 
 <path d=" M  96.17018 51.49939 L  63.4497 23.33124 L  86.49635 3.1298 L  65.1568 7.68214 Z  " style="stroke:none"/> 
 </g> 
 </g> 
 </g> 
 </g> 
 </g> 
 <g> 
 <g stroke="rgb(100.0%,0.0%,0.0%)"> 
 <g fill="rgb(100.0%,0.0%,0.0%)"> 
 <path d=" M  -61.17343 -83.95287 L  -48.74924 -73.2566 L  -36.32504 -62.56143 L  -23.90085 -51.86603 L  -11.47665 -41.17064 L  0.94754 -30.47481 L  13.37173 -19.77942 L  25.79593 -9.0838 L  38.22012 1.61136 L  50.64432 12.30762 L  63.06851 23.00279 L  75.49272 33.69841 L  87.91692 44.39401 L  100.34111 55.08984 L  112.7653 65.78502 L  125.1895 76.48106 L  137.6137 87.17647 L  150.0379 97.87207 L  162.4621 108.56746 L  174.88629 119.26308 L  187.31049 129.95847 L  199.73468 140.6543 L  212.15887 151.34947 L  224.58308 162.04575 L  237.00728 172.74092  " style="fill:none"/> 
 </g> 
 </g> 
 </g> 
 <g> 
 <g stroke="rgb(100.0%,0.0%,0.0%)"> 
 <g fill="rgb(100.0%,0.0%,0.0%)"> 
 <path d=" M  -61.17343 34.6327 L  -48.74924 31.9822 L  -36.32504 29.3306 L  -23.90085 26.68161 L  -11.47665 24.0311 L  0.94754 21.37949 L  13.37173 18.72897 L  25.79593 16.07869 L  38.22012 13.42818 L  50.64432 10.77788 L  63.06851 8.12758 L  75.49272 5.47707 L  87.91692 2.82677 L  100.34111 0.17496 L  112.7653 -2.47401 L  125.1895 -5.12431 L  137.6137 -7.77614 L  150.0379 -10.42642 L  162.4621 -13.07693 L  174.88629 -15.72723 L  187.31049 -18.37753 L  199.73468 -21.02805 L  212.15887 -23.67834 L  224.58308 -26.32863 L  237.00728 -28.98045  " style="fill:none"/> 
 </g> 
 </g> 
 </g> 
 <g> 
 <g stroke="rgb(0.0%,0.0%,100.0%)"> 
 <g fill="rgb(0.0%,0.0%,100.0%)"> 
 <path d=" M  -61.17343 -170.80176 L  -48.74924 -153.24933 L  -36.32504 -135.69539 L  -23.90085 -118.14143 L  -11.47665 -100.589 L  0.94754 -83.03506 L  13.37173 -65.48111 L  25.79593 -47.91588 L  38.22012 -30.37474 L  50.64432 -12.82079 L  63.06851 4.73163 L  75.49272 22.28427 L  87.91692 39.838 L  100.34111 57.39195 L  112.7653 74.9446 L  125.1895 92.49855 L  137.6137 110.05228 L  150.0379 127.60622 L  162.4621 145.15887 L  174.88629 162.7126 L  187.31049 180.26654 L  199.73468 197.8192 L  212.15887 215.37314 L  224.58308 232.92688 L  237.00728 250.48082  " style="fill:none"/> 
 </g> 
 </g> 
 </g> 
 <g> 
 <g stroke="rgb(0.0%,0.0%,100.0%)"> 
 <g fill="rgb(0.0%,0.0%,100.0%)"> 
 <path d=" M  -61.17343 132.56839 L  -48.74924 121.67805 L  -36.32504 110.78642 L  -23.90085 99.89761 L  -11.47665 89.00577 L  0.94754 78.11566 L  13.37173 67.22533 L  25.79593 56.20845 L  38.22012 45.44467 L  50.64432 34.55586 L  63.06851 23.66423 L  75.49272 12.7739 L  87.91692 1.88358 L  100.34111 -9.00522 L  112.7653 -19.89426 L  125.1895 -30.78589 L  137.6137 -41.67621 L  150.0379 -52.56654 L  162.4621 -63.45665 L  174.88629 -74.34698 L  187.31049 -85.2358 L  199.73468 -96.12764 L  212.15887 -107.01797 L  224.58308 -117.90808 L  237.00728 -128.79842  " style="fill:none"/> 
 </g> 
 </g> 
 </g> 
 <g> 
 <g stroke="rgb(0.0%,100.0%,0.0%)"> 
 <g fill="rgb(0.0%,100.0%,0.0%)"> 
 <path d=" M  -61.17343 -735.23007 L  -48.74924 -673.10822 L  -36.32504 -610.98615 L  -23.90085 -548.86429 L  -11.47665 -486.74266 L  0.94754 -424.62102 L  13.37173 -362.49896 L  25.79593 -300.37732 L  38.22012 -238.25546 L  50.64432 -176.13362 L  63.06851 -114.01155 L  75.49272 -51.88991 L  87.91692 10.2317 L  100.34111 72.35356 L  112.7653 134.47563 L  125.1895 196.59749 L  137.6137 258.71912 L  150.0379 320.84097 L  162.4621 382.96304 L  174.88629 445.0849 L  187.31049 507.20653 L  199.73468 569.32838 L  212.15887 631.45045 L  224.58308 693.5723 L  237.00728 755.69394  " style="fill:none"/> 
 </g> 
 </g> 
 </g> 
 <g> 
 <g stroke="rgb(0.0%,100.0%,0.0%)"> 
 <g fill="rgb(0.0%,100.0%,0.0%)"> 
 <path d=" M  -61.17343 1165.71739 L  -48.74924 1051.8272 L  -36.32504 937.9372 L  -23.90085 824.047 L  -11.47665 710.15874 L  0.94754 596.27048 L  13.37173 482.38028 L  25.79593 368.49028 L  38.22012 254.60204 L  50.64432 140.71182 L  63.06851 26.82162 L  75.49272 -87.06815 L  87.91692 -200.95639 L  100.34111 -314.8466 L  112.7653 -428.73659 L  125.1895 -542.6268 L  137.6137 -656.51505 L  150.0379 -770.40526 L  162.4621 -884.29524 L  174.88629 -998.18546 L  187.31049 -1112.07372 L  199.73468 -1225.96391 L  212.15887 -1339.85391 L  224.58308 -1453.74411 L  237.00728 -1567.63237  " style="fill:none"/> 
 </g> 
 </g> 
 </g> 
 <path d=" M  -61.17343 -24.82538 L  -48.74924 -24.35432 L  -36.32504 -23.88304 L  -23.90085 -23.41199 L  -11.47665 -22.9407 L  0.94754 -22.46965 L  13.37173 -21.99838 L  25.79593 -21.5271 L  38.22012 -21.05605 L  50.64432 -20.58478 L  63.06851 -20.11371 L  75.49272 -19.64244 L  87.91692 -19.17139 L  100.34111 -18.7001 L  112.7653 -18.22905 L  125.1895 -17.75778 L  137.6137 -17.2865 L  150.0379 -16.81436 L  162.4621 -16.34439 L  174.88629 -15.87311 L  187.31049 -15.40184 L  199.73468 -14.93079 L  212.15887 -14.4595 L  224.58308 -13.98845 L  237.00728 -13.51717  " style="fill:none"/> 
 <g> 
 <g stroke="rgb(60.00061%,19.9997%,0.0%)"> 
 <g fill="rgb(60.00061%,19.9997%,0.0%)"> 
 <path d=" M  96.17018 51.49939 L  63.4497 23.33124  " style="fill:none"/> 
 </g> 
 </g> 
 </g> 
 <g> 
 <g stroke="rgb(60.00061%,19.9997%,0.0%)"> 
 <g fill="rgb(60.00061%,19.9997%,0.0%)"> 
 <path d=" M  63.4497 23.33124 L  86.49635 3.1298  " style="fill:none"/> 
 </g> 
 </g> 
 </g> 
 <g> 
 <g stroke="rgb(60.00061%,19.9997%,0.0%)"> 
 <g fill="rgb(60.00061%,19.9997%,0.0%)"> 
 <path d=" M  86.49635 3.1298 L  65.1568 7.68214  " style="fill:none"/> 
 </g> 
 </g> 
 </g> 
 <g> 
 <g stroke="rgb(60.00061%,19.9997%,0.0%)"> 
 <g fill="rgb(60.00061%,19.9997%,0.0%)"> 
 <path d=" M  65.1568 7.68214 L  96.17018 51.49939  " style="fill:none"/> 
 </g> 
 </g> 
 </g> 
 <g> 
 <g fill="rgb(0.0%,0.0%,100.0%)"> 
 <path d=" M  96.17018 51.49939 M  96.92018 51.49939 C  96.92018 51.9136 96.5844 52.24939 96.17018 52.24939 C  95.75597 52.24939 95.42018 51.9136 95.42018 51.49939 C  95.42018 51.08517 95.75597 50.74939 96.17018 50.74939 C  96.5844 50.74939 96.92018 51.08517 96.92018 51.49939 Z M  96.17018 51.49939  " /> 
 </g> 
 </g> 
 <g> 
 <g stroke="rgb(0.0%,0.0%,100.0%)"> 
 <g fill="rgb(0.0%,0.0%,100.0%)"> 
 <path d=" M  98.16187 55.62515  " style="fill:none"/> 
 <g> 
 <g> 
 <g transform="matrix(1.0,0.0,0.0,1.0,95.07802,53.23349)"> 
 <g fill="rgb(0.0%,0.0%,100.0%)"> 
 <text style="stroke:none" transform="scale(1,-1) translate(3.08385,0)" text-anchor="middle"  font-size="7"> 
<tspan font-family="cmmi" font-size="7">P</tspan></text> 
</g> 
 </g> 
 </g> 
 </g> 
 </g> 
 </g> 
 </g> 
 <g> 
 <g fill="rgb(0.0%,0.0%,100.0%)"> 
 <path d=" M  63.4497 23.33124 M  64.1997 23.33124 C  64.1997 23.74545 63.86392 24.08124 63.4497 24.08124 C  63.03549 24.08124 62.6997 23.74545 62.6997 23.33124 C  62.6997 22.91702 63.03549 22.58124 63.4497 22.58124 C  63.86392 22.58124 64.1997 22.91702 64.1997 23.33124 Z M  63.4497 23.33124  " /> 
 </g> 
 </g> 
 <g> 
 <g stroke="rgb(0.0%,0.0%,100.0%)"> 
 <g fill="rgb(0.0%,0.0%,100.0%)"> 
 <path d=" M  65.44139 27.45679  " style="fill:none"/> 
 <g> 
 <g> 
 <g transform="matrix(1.0,0.0,0.0,1.0,62.29251,25.74567)"> 
 <g fill="rgb(0.0%,0.0%,100.0%)"> 
 <text style="stroke:none" transform="scale(1,-1) translate(3.14888,0)" text-anchor="middle"  font-size="7"> 
<tspan font-family="cmmi" font-size="7">Q</tspan></text> 
</g> 
 </g> 
 </g> 
 </g> 
 </g> 
 </g> 
 </g> 
 <g> 
 <g fill="rgb(0.0%,0.0%,100.0%)"> 
 <path d=" M  86.49635 3.1298 M  87.24635 3.1298 C  87.24635 3.54402 86.91057 3.8798 86.49635 3.8798 C  86.08214 3.8798 85.74635 3.54402 85.74635 3.1298 C  85.74635 2.71559 86.08214 2.3798 86.49635 2.3798 C  86.91057 2.3798 87.24635 2.71559 87.24635 3.1298 Z M  86.49635 3.1298  " /> 
 </g> 
 </g> 
 <g> 
 <g stroke="rgb(0.0%,0.0%,100.0%)"> 
 <g fill="rgb(0.0%,0.0%,100.0%)"> 
 <path d=" M  88.48804 7.25537  " style="fill:none"/> 
 <g> 
 <g> 
 <g transform="matrix(1.0,0.0,0.0,1.0,85.458,4.86371)"> 
 <g fill="rgb(0.0%,0.0%,100.0%)"> 
 <text style="stroke:none" transform="scale(1,-1) translate(3.03004,0)" text-anchor="middle"  font-size="7"> 
<tspan font-family="cmmi" font-size="7">R</tspan></text> 
</g> 
 </g> 
 </g> 
 </g> 
 </g> 
 </g> 
 </g> 
 <g> 
 <g fill="rgb(0.0%,0.0%,100.0%)"> 
 <path d=" M  65.1568 7.68214 M  65.9068 7.68214 C  65.9068 8.09636 65.57101 8.43214 65.1568 8.43214 C  64.74258 8.43214 64.4068 8.09636 64.4068 7.68214 C  64.4068 7.26793 64.74258 6.93214 65.1568 6.93214 C  65.57101 6.93214 65.9068 7.26793 65.9068 7.68214 Z M  65.1568 7.68214  " /> 
 </g> 
 </g> 
 <g> 
 <g stroke="rgb(0.0%,0.0%,100.0%)"> 
 <g fill="rgb(0.0%,0.0%,100.0%)"> 
 <path d=" M  67.14848 11.8079  " style="fill:none"/> 
 <g> 
 <g> 
 <g transform="matrix(1.0,0.0,0.0,1.0,64.50195,9.41624)"> 
 <g fill="rgb(0.0%,0.0%,100.0%)"> 
 <text style="stroke:none" transform="scale(1,-1) translate(2.64653,0)" text-anchor="middle"  font-size="7"> 
<tspan font-family="cmmi" font-size="7">S</tspan></text> 
</g> 
 </g> 
 </g> 
 </g> 
 </g> 
 </g> 
 </g> 
 <g> 
 <g fill="rgb(26.66626%,26.66626%,26.66626%)"> 
 <path d=" M  10.6752 -22.10062 M  11.4252 -22.10062 C  11.4252 -21.6864 11.08942 -21.35062 10.6752 -21.35062 C  10.26099 -21.35062 9.9252 -21.6864 9.9252 -22.10062 C  9.9252 -22.51483 10.26099 -22.85062 10.6752 -22.85062 C  11.08942 -22.85062 11.4252 -22.51483 11.4252 -22.10062 Z M  10.6752 -22.10062  " /> 
 </g> 
 </g> 
 <g> 
 <g stroke="rgb(26.66626%,26.66626%,26.66626%)"> 
 <g fill="rgb(26.66626%,26.66626%,26.66626%)"> 
 <path d=" M  12.80363 -18.06755  " style="fill:none"/> 
 <g> 
 <g> 
 <g transform="matrix(1.0,0.0,0.0,1.0,9.79668,-20.45921)"> 
 <g fill="rgb(26.66626%,26.66626%,26.66626%)"> 
 <text style="stroke:none" transform="scale(1,-1) translate(3.00696,0)" text-anchor="middle"  font-size="7"> 
<tspan font-family="cmmi" font-size="7">A</tspan></text> 
</g> 
 </g> 
 </g> 
 </g> 
 </g> 
 </g> 
 </g> 
 <g> 
 <g fill="rgb(26.66626%,26.66626%,26.66626%)"> 
 <path d=" M  175.4687 -15.85097 M  176.2187 -15.85097 C  176.2187 -15.43675 175.88292 -15.10097 175.4687 -15.10097 C  175.05449 -15.10097 174.7187 -15.43675 174.7187 -15.85097 C  174.7187 -16.26518 175.05449 -16.60097 175.4687 -16.60097 C  175.88292 -16.60097 176.2187 -16.26518 176.2187 -15.85097 Z M  175.4687 -15.85097  " /> 
 </g> 
 </g> 
 <g> 
 <g stroke="rgb(26.66626%,26.66626%,26.66626%)"> 
 <g fill="rgb(26.66626%,26.66626%,26.66626%)"> 
 <path d=" M  177.54504 -11.8079  " style="fill:none"/> 
 <g> 
 <g> 
 <g transform="matrix(1.0,0.0,0.0,1.0,174.35355,-14.19957)"> 
 <g fill="rgb(26.66626%,26.66626%,26.66626%)"> 
 <text style="stroke:none" transform="scale(1,-1) translate(3.1915,0)" text-anchor="middle"  font-size="7"> 
<tspan font-family="cmmi" font-size="7">B</tspan></text> 
</g> 
 </g> 
 </g> 
 </g> 
 </g> 
 </g> 
 </g> 
 <g> 
 <g fill="rgb(26.66626%,26.66626%,26.66626%)"> 
 <path d=" M  81.99113 -19.39606 M  82.74113 -19.39606 C  82.74113 -18.98184 82.40535 -18.64606 81.99113 -18.64606 C  81.57692 -18.64606 81.24113 -18.98184 81.24113 -19.39606 C  81.24113 -19.81027 81.57692 -20.14606 81.99113 -20.14606 C  82.40535 -20.14606 82.74113 -19.81027 82.74113 -19.39606 Z M  81.99113 -19.39606  " /> 
 </g> 
 </g> 
 <g> 
 <g stroke="rgb(26.66626%,26.66626%,26.66626%)"> 
 <g fill="rgb(26.66626%,26.66626%,26.66626%)"> 
 <path d=" M  83.9355 -15.22232  " style="fill:none"/> 
 <g> 
 <g> 
 <g transform="matrix(1.0,0.0,0.0,1.0,80.82251,-17.61398)"> 
 <g fill="rgb(26.66626%,26.66626%,26.66626%)"> 
 <text style="stroke:none" transform="scale(1,-1) translate(3.11299,0)" text-anchor="middle"  font-size="7"> 
<tspan font-family="cmmi" font-size="7">C</tspan></text> 
</g> 
 </g> 
 </g> 
 </g> 
 </g> 
 </g> 
 </g> 
 <g> 
 <g fill="rgb(26.66626%,26.66626%,26.66626%)"> 
 <path d=" M  110.94229 -18.29808 M  111.69229 -18.29808 C  111.69229 -17.88387 111.3565 -17.54808 110.94229 -17.54808 C  110.52808 -17.54808 110.19229 -17.88387 110.19229 -18.29808 C  110.19229 -18.7123 110.52808 -19.04808 110.94229 -19.04808 C  111.3565 -19.04808 111.69229 -18.7123 111.69229 -18.29808 Z M  110.94229 -18.29808  " /> 
 </g> 
 </g> 
 <g> 
 <g stroke="rgb(26.66626%,26.66626%,26.66626%)"> 
 <g fill="rgb(26.66626%,26.66626%,26.66626%)"> 
 <path d=" M  112.95741 -14.08418  " style="fill:none"/> 
 <g> 
 <g> 
 <g transform="matrix(1.0,0.0,0.0,1.0,109.58054,-16.47585)"> 
 <g fill="rgb(26.66626%,26.66626%,26.66626%)"> 
 <text style="stroke:none" transform="scale(1,-1) translate(3.37688,0)" text-anchor="middle"  font-size="7"> 
<tspan font-family="cmmi" font-size="7">D</tspan></text> 
</g> 
 </g> 
 </g> 
 </g> 
 </g> 
 </g> 
 </g> 
 <g> 
 <g fill="rgb(26.66626%,26.66626%,26.66626%)"> 
 <path d=" M  44.99792 -20.79903 M  45.74792 -20.79903 C  45.74792 -20.38481 45.41214 -20.04903 44.99792 -20.04903 C  44.58371 -20.04903 44.24792 -20.38481 44.24792 -20.79903 C  44.24792 -21.21324 44.58371 -21.54903 44.99792 -21.54903 C  45.41214 -21.54903 45.74792 -21.21324 45.74792 -20.79903 Z M  44.99792 -20.79903  " /> 
 </g> 
 </g> 
 <g> 
 <g stroke="rgb(26.66626%,26.66626%,26.66626%)"> 
 <g fill="rgb(26.66626%,26.66626%,26.66626%)"> 
 <path d=" M  46.94707 -16.64482  " style="fill:none"/> 
 <g> 
 <g> 
 <g transform="matrix(1.0,0.0,0.0,1.0,43.81929,-19.03648)"> 
 <g fill="rgb(26.66626%,26.66626%,26.66626%)"> 
 <text style="stroke:none" transform="scale(1,-1) translate(3.12778,0)" text-anchor="middle"  font-size="7"> 
<tspan font-family="cmmi" font-size="7">E</tspan></text> 
</g> 
 </g> 
 </g> 
 </g> 
 </g> 
 </g> 
 </g> 
 <g> 
 <g fill="rgb(26.66626%,26.66626%,26.66626%)"> 
 <path d=" M  68.16788 -19.9203 M  68.91788 -19.9203 C  68.91788 -19.50609 68.58209 -19.1703 68.16788 -19.1703 C  67.75366 -19.1703 67.41788 -19.50609 67.41788 -19.9203 C  67.41788 -20.33452 67.75366 -20.6703 68.16788 -20.6703 C  68.58209 -20.6703 68.91788 -20.33452 68.91788 -19.9203 Z M  68.16788 -19.9203  " /> 
 </g> 
 </g> 
 <g> 
 <g stroke="rgb(26.66626%,26.66626%,26.66626%)"> 
 <g fill="rgb(26.66626%,26.66626%,26.66626%)"> 
 <path d=" M  70.2783 -15.79128  " style="fill:none"/> 
 <g> 
 <g> 
 <g transform="matrix(1.0,0.0,0.0,1.0,67.20433,-18.18294)"> 
 <g fill="rgb(26.66626%,26.66626%,26.66626%)"> 
 <text style="stroke:none" transform="scale(1,-1) translate(3.07397,0)" text-anchor="middle"  font-size="7"> 
<tspan font-family="cmmi" font-size="7">F</tspan></text> 
</g> 
 </g> 
 </g> 
 </g> 
 </g> 
 </g> 
 </g> 
 </g> 
 </g> 
 </g> 
 </g> 
 </g> 
 </g> 
 </g> 
 </g> 
 
                                                                                           </g> 
</svg>

<?xml-stylesheet href="TE_export636162228779265330.css" type="text/css"?>
<svg xmlns="http://www.w3.org/2000/svg" width="596pt" height="367pt" viewBox="-61.2 -93.9 298.2 183.5">
  <g stroke-linejoin="round" transform="matrix(1 0 0 -1 0 -4.3)" stroke-linecap="round" stroke-width=".5" stroke="#000">
    <clipPath id="a">
      <path d="M-61.2-93.9V89.6H237V-93.9zM237 89.6"/>
    </clipPath>
    <g clip-path="url(#a)">
      <path d="M96.2 51.5L63.4 23.3 86.5 3.1 65.2 7.7z" stroke="none" fill-opacity=".1" fill="#930"/>
      <path d="M-61.2-84l12.5 10.7 12.4 10.7L-24-51.9l12.4 10.7L1-30.5l12.5 10.7L25.8-9 38.2 1.6l12.4 10.7L63.1 23l12.4 10.7 12.4 10.7L100.3 55l12.5 10.7 12.4 10.7 12.4 10.7L150 97.9l12.5 10.7 12.4 10.7 12.4 10.7 12.4 10.7 12.5 10.6 12.4 10.7 12.4 10.7" fill="none" stroke="red"/>
      <path d="M-61.2 34.6l12.5-2.6 12.4-2.7 12.4-2.6 12.4-2.7L1 21.4l12.5-2.7 12.4-2.6 12.4-2.7 12.4-2.6L63.1 8l12.4-2.6 12.4-2.7L100.3.2l12.5-2.7L125.2-5l12.4-2.7 12.4-2.6 12.5-2.7 12.4-2.6 12.4-2.7 12.4-2.6 12.5-2.7 12.4-2.6L237-29" fill="none" stroke="red"/>
      <path d="M-61.2-170.8l12.5 17.6 12.4 17.5 12.4 17.6 12.4 17.5L1-83l12.5 17.5 12.4 17.6 12.4 17.5 12.4 17.6L63.1 4.7l12.4 17.6 12.4 17.5 12.4 17.6 12.5 17.5 12.4 17.6 12.4 17.6 12.4 17.5 12.5 17.6 12.4 17.5 12.4 17.6 12.4 17.5 12.5 17.6 12.4 17.5 12.4 17.6" fill="none" stroke="#00F"/>
      <path d="M-61.2 132.6l12.5-11 12.4-10.8L-24 99.9-11.5 89 1 78.1l12.5-10.9 12.4-11 12.4-10.8 12.4-10.8 12.5-11 12.4-10.8 12.4-11L100.3-9 112.8-20l12.4-10.9 12.4-10.9L150-52.6l12.5-10.9 12.4-10.8 12.4-11L199.7-96l12.5-11 12.4-10.8 12.4-10.9" fill="none" stroke="#00F"/>
      <path d="M-61.2-735.2l12.5 62 12.4 62.2 12.4 62.1 12.4 62.2 12.4 62 12.5 62.2 12.4 62.1 12.4 62.1L50.6-176l12.5 62 12.4 62.2 12.4 62.1 12.4 62.2 12.5 62 12.4 62.2 12.4 62.1 12.4 62.1 12.5 62.2 12.4 62 12.4 62.2 12.4 62.1 12.5 62.2 12.4 62 12.4 62.2" fill="none" stroke="#0F0"/>
      <path d="M-61.2 1165.7l12.5-113.9L-36.3 938-24 824l12.4-113.8L1 596.2l12.5-113.8 12.4-114 12.4-113.8 12.4-113.9L63.1 26.8 75.5-87 87.9-201l12.4-113.8 12.5-114 12.4-113.8 12.4-114L150-770.3l12.5-113.9 12.4-113.9 12.4-113.9 12.4-113.9 12.5-113.9 12.4-113.8 12.4-114" fill="none" stroke="#0F0"/>
      <path d="M-61.2-24.8l12.5.4 12.4.5 12.4.5 12.4.5 12.4.4 12.5.5 12.4.5 12.4.4 12.4.5 12.5.5 12.4.5 12.4.4 12.4.5 12.5.5 12.4.4 12.4.5 12.4.5 12.5.5 12.4.4 12.4.5 12.4.5 12.5.4 12.4.5 12.4.5" fill="none"/>
      <path d="M96.2 51.5L63.4 23.3M63.4 23.3L86.5 3.1M86.5 3.1L65.2 7.7M65.2 7.7l31 43.8" fill="none" stroke="#930"/>
      <path d="M96.9 51.5a.7.7 0 1 1-1.5 0 .7.7 0 0 1 1.5 0zm-.7 0" fill="#00F"/>
      <text transform="matrix(1 0 0 -1 98.2 53.2)" text-anchor="middle" font-size="7" stroke="none" fill="#00F">
        <tspan font-family="cmmi">P</tspan>
      </text>
      <path d="M64.2 23.3a.7.7 0 1 1-1.5 0 .7.7 0 0 1 1.5 0zm-.8 0" fill="#00F"/>
      <text transform="matrix(1 0 0 -1 65.4 25.7)" text-anchor="middle" font-size="7" stroke="none" fill="#00F">
        <tspan font-family="cmmi">Q</tspan>
      </text>
      <path d="M87.2 3.1a.7.7 0 1 1-1.5 0 .7.7 0 0 1 1.5 0zm-.7 0" fill="#00F"/>
      <text transform="matrix(1 0 0 -1 88.5 4.9)" text-anchor="middle" font-size="7" stroke="none" fill="#00F">
        <tspan font-family="cmmi">R</tspan>
      </text>
      <path d="M65.9 7.7a.7.7 0 1 1-1.5 0 .7.7 0 0 1 1.5 0zm-.7 0" fill="#00F"/>
      <text transform="matrix(1 0 0 -1 67.1 9.4)" text-anchor="middle" font-size="7" stroke="none" fill="#00F">
        <tspan font-family="cmmi">S</tspan>
      </text>
      <path d="M11.399999999999999-22.1a.7.7 0 1 1-1.5 0 .7.7 0 0 1 1.5 0zm-.7 0" fill="#444"/>
      <text transform="matrix(1 0 0 -1 12.8 -20.5)" text-anchor="middle" font-size="7" stroke="none" fill="#444">
        <tspan font-family="cmmi">A</tspan>
      </text>
      <path d="M176.2-15.9a.7.7 0 1 1-1.5 0 .7.7 0 0 1 1.5 0zm-.7 0" fill="#444"/>
      <text transform="matrix(1 0 0 -1 177.5 -14.2)" text-anchor="middle" font-size="7" stroke="none" fill="#444">
        <tspan font-family="cmmi">B</tspan>
      </text>
      <path d="M82.7-19.4a.7.7 0 1 1-1.5 0 .7.7 0 0 1 1.5 0zm-.7 0" fill="#444"/>
      <text transform="matrix(1 0 0 -1 84 -17.6)" text-anchor="middle" font-size="7" stroke="none" fill="#444">
        <tspan font-family="cmmi">C</tspan>
      </text>
      <path d="M111.7-18.3a.8.8 0 1 1-1.5 0 .8.8 0 0 1 1.5 0zm-.8 0" fill="#444"/>
      <text transform="matrix(1 0 0 -1 113 -16.5)" text-anchor="middle" font-size="7" stroke="none" fill="#444">
        <tspan font-family="cmmi">D</tspan>
      </text>
      <path d="M45.7-20.8a.7.7 0 1 1-1.5 0 .7.7 0 0 1 1.5 0zm-.7 0" fill="#444"/>
      <text transform="matrix(1 0 0 -1 47 -19)" text-anchor="middle" font-size="7" stroke="none" fill="#444">
        <tspan font-family="cmmi">E</tspan>
      </text>
      <path d="M68.9-20a.8.8 0 1 1-1.5 0 .8.8 0 0 1 1.5 0zm-.7 0" fill="#444"/>
      <text transform="matrix(1 0 0 -1 70.3 -18.2)" text-anchor="middle" font-size="7" stroke="none" fill="#444">
        <tspan font-family="cmmi">F</tspan>
      </text>
    </g>
  </g>
</svg>
